X:1
T:Song 46 (Gibbons), 10.10
T:Orlando Gibbons, 1623
T:Song 46 (Gibbons), 10.10
T:Public Domain
C:Orlando Gibbons, 1623
Z:Public Domain
%%score ( 1 2 ) ( 3 4 )
L:1/8
M:4/4
K:F
V:1 treble 
V:2 treble 
V:3 bass 
V:4 bass 
V:1
 [CF]4 [FA]2 [CF]2 | [Cc]6 F2 x2 | [FB]3 [FB] [GB]2 [FA]2 | [EG]6 [DG]2 | %4
 [CE]2 [CF]2 [B,D]2 [A,C]2 | [DF]2 [FA]2 [FG]2 [EG]2 x | F8 |] %7
V:2
 x8 | x6 F2 x2 | x8 | x8 | x8 | x9 | F8 |] %7
V:3
 [F,A,]4 [F,C]2 [F,A,]2 | F,2 z2 [F,A,]4 x2 | [D,B,]3 [D,B,] [_E,_E]2 [F,C]2 | [C,C]6 [G,,B,]2 | %4
 [C,G,]2 [A,,F,]2 [B,,F,]2 F,2 | [D,A,]2 [A,,C]2 C,2 z B, x | [F,A,]8 |] %7
V:4
 x8 | G,6 E,4 | x8 | x8 | x8 | x4 C3 C,2 | x8 |] %7

